X:82
T:Paddy Clancy's                                                                                    
M:6/8                                                                                               
L:1/8                                                                                               
K:D                                                                                                 
f|afd edB|dcd AFA|dcd ede|fef efg|                                                                  
afd edB|dcd AFA|dcd efg|1 fdd d2 f:|2fdd d2 e||                                                     
faf gbg|faf fed|fef gfg|afd e2 d|                                                                   
faf gbg|faf fed|fef ede|1 fdd d2 e:|2fdd d2 f||
